X: 1992
T: As I Went Out Upon The Ice
R: polka
M: 2/4
K: Adorian
|:f|eA B>A|e2 AB/d/|eA B/c/B/A/|G2 G2|
eA BA|eA B/c/B/A/|G>e dB|A2- A:|
|:d|e2 a>b|ag g/e/d|Bd ef|g2- g/f/g/|
ea a>b|ag e>d|B/c/d/B/ GB|A2- A:|

